src/assets/diamonds_6.svg

<?xml version="1.0" encoding="UTF-8"?>
<svg xmlns="http://www.w3.org/2000/svg" xmlns:xlink="http://www.w3.org/1999/xlink" width="99px" height="140px" viewBox="0 0 99 140" version="1.1">
<g id="surface1">
<path style="fill-rule:nonzero;fill:rgb(100%,100%,100%);fill-opacity:1;stroke-width:0.755906;stroke-linecap:butt;stroke-linejoin:miter;stroke:rgb(50.196078%,50.196078%,50.196078%);stroke-opacity:1;stroke-miterlimit:4;" d="M 9.297585 719.743103 L 224.702415 719.743103 C 229.632812 719.743103 233.621449 723.747651 233.621449 728.681329 L 233.621449 1043.042991 C 233.621449 1047.976669 229.632812 1051.981217 224.702415 1051.981217 L 9.297585 1051.981217 C 4.367188 1051.981217 0.378551 1047.976669 0.378551 1043.042991 L 0.378551 728.681329 C 0.378551 723.747651 4.367188 719.743103 9.297585 719.743103 Z M 9.297585 719.743103 " transform="matrix(0.423077,0,0,0.42042,0,-302.434542)"/>
<path style=" stroke:none;fill-rule:nonzero;fill:rgb(100%,0%,0%);fill-opacity:1;" d="M 24.804688 39.820312 L 36.753906 27.90625 L 24.804688 15.992188 L 12.855469 27.90625 Z M 24.804688 39.820312 "/>
<path style=" stroke:none;fill-rule:nonzero;fill:rgb(100%,0%,0%);fill-opacity:1;" d="M 24.804688 124.007812 L 36.753906 112.09375 L 24.804688 100.179688 L 12.855469 112.09375 Z M 24.804688 124.007812 "/>
<path style=" stroke:none;fill-rule:nonzero;fill:rgb(100%,0%,0%);fill-opacity:1;" d="M 24.804688 81.914062 L 36.753906 70 L 24.804688 58.085938 L 12.855469 70 Z M 24.804688 81.914062 "/>
<path style=" stroke:none;fill-rule:nonzero;fill:rgb(100%,0%,0%);fill-opacity:1;" d="M 74.195312 39.820312 L 86.144531 27.90625 L 74.195312 15.992188 L 62.246094 27.90625 Z M 74.195312 39.820312 "/>
<path style=" stroke:none;fill-rule:nonzero;fill:rgb(100%,0%,0%);fill-opacity:1;" d="M 74.195312 124.007812 L 86.144531 112.09375 L 74.195312 100.179688 L 62.246094 112.09375 Z M 74.195312 124.007812 "/>
<path style=" stroke:none;fill-rule:nonzero;fill:rgb(100%,0%,0%);fill-opacity:1;" d="M 74.195312 81.914062 L 86.144531 70 L 74.195312 58.085938 L 62.246094 70 Z M 74.195312 81.914062 "/>
<path style=" stroke:none;fill-rule:nonzero;fill:rgb(100%,0%,0%);fill-opacity:1;" d="M 7.277344 25.789062 L 11.261719 21.816406 L 7.277344 17.847656 L 3.296875 21.816406 Z M 7.277344 25.789062 "/>
<path style=" stroke:none;fill-rule:nonzero;fill:rgb(100%,0%,0%);fill-opacity:1;" d="M 91.722656 114.210938 L 95.703125 118.183594 L 91.722656 122.152344 L 87.738281 118.183594 Z M 91.722656 114.210938 "/>
<path style=" stroke:none;fill-rule:nonzero;fill:rgb(100%,0%,0%);fill-opacity:1;" d="M 11.261719 11.300781 C 11.261719 12.503906 10.917969 13.453125 10.230469 14.152344 C 9.542969 14.851562 8.609375 15.199219 7.421875 15.199219 C 4.671875 15.199219 3.296875 13.273438 3.296875 9.417969 C 3.296875 7.71875 3.59375 6.339844 4.1875 5.285156 C 4.921875 3.953125 6.066406 3.285156 7.617188 3.285156 C 8.511719 3.285156 9.257812 3.472656 9.851562 3.847656 C 10.5625 4.289062 10.917969 4.941406 10.917969 5.796875 C 10.917969 5.984375 10.785156 6.078125 10.523438 6.078125 L 9.339844 6.078125 C 9.183594 6.078125 9.054688 5.988281 8.945312 5.8125 C 8.792969 5.546875 8.667969 5.375 8.578125 5.300781 C 8.359375 5.121094 8.039062 5.03125 7.617188 5.03125 C 6.90625 5.03125 6.351562 5.367188 5.957031 6.039062 C 5.648438 6.582031 5.472656 7.246094 5.4375 8.035156 C 6.0625 7.53125 6.808594 7.28125 7.679688 7.28125 C 8.785156 7.28125 9.667969 7.675781 10.324219 8.46875 C 10.949219 9.214844 11.261719 10.160156 11.261719 11.300781 Z M 9.171875 11.253906 C 9.171875 10.636719 9.019531 10.125 8.714844 9.726562 C 8.378906 9.28125 7.914062 9.058594 7.320312 9.058594 C 6.730469 9.058594 6.273438 9.28125 5.941406 9.726562 C 5.640625 10.125 5.492188 10.636719 5.492188 11.253906 C 5.492188 11.84375 5.648438 12.34375 5.964844 12.753906 C 6.308594 13.203125 6.761719 13.429688 7.328125 13.429688 C 7.90625 13.429688 8.363281 13.207031 8.707031 12.761719 C 9.015625 12.355469 9.171875 11.851562 9.171875 11.253906 Z M 9.171875 11.253906 "/>
<path style=" stroke:none;fill-rule:nonzero;fill:rgb(100%,0%,0%);fill-opacity:1;" d="M 87.738281 128.699219 C 87.738281 127.496094 88.082031 126.546875 88.769531 125.847656 C 89.457031 125.148438 90.390625 124.800781 91.578125 124.800781 C 94.328125 124.800781 95.703125 126.726562 95.703125 130.582031 C 95.703125 132.28125 95.40625 133.660156 94.8125 134.714844 C 94.078125 136.046875 92.933594 136.714844 91.382812 136.714844 C 90.488281 136.714844 89.742188 136.527344 89.148438 136.152344 C 88.4375 135.710938 88.082031 135.058594 88.082031 134.203125 C 88.082031 134.015625 88.214844 133.921875 88.476562 133.921875 L 89.660156 133.921875 C 89.816406 133.921875 89.945312 134.011719 90.054688 134.1875 C 90.207031 134.453125 90.332031 134.625 90.421875 134.699219 C 90.640625 134.878906 90.960938 134.96875 91.382812 134.96875 C 92.09375 134.96875 92.648438 134.632812 93.042969 133.960938 C 93.351562 133.417969 93.527344 132.753906 93.5625 131.964844 C 92.9375 132.46875 92.191406 132.71875 91.320312 132.71875 C 90.214844 132.71875 89.332031 132.324219 88.675781 131.53125 C 88.050781 130.785156 87.738281 129.839844 87.738281 128.699219 Z M 89.828125 128.746094 C 89.828125 129.363281 89.980469 129.875 90.285156 130.273438 C 90.621094 130.71875 91.085938 130.941406 91.679688 130.941406 C 92.269531 130.941406 92.726562 130.71875 93.058594 130.273438 C 93.359375 129.875 93.507812 129.363281 93.507812 128.746094 C 93.507812 128.15625 93.351562 127.65625 93.035156 127.246094 C 92.691406 126.796875 92.238281 126.570312 91.671875 126.570312 C 91.09375 126.570312 90.636719 126.792969 90.292969 127.238281 C 89.984375 127.644531 89.828125 128.148438 89.828125 128.746094 Z M 89.828125 128.746094 "/>
</g>
</svg>

<svg xmlns="http://www.w3.org/2000/svg" width="99" height="140"><path d="M9.298 719.743h215.404c4.93 0 8.92 4.005 8.92 8.938v314.362c0 4.934-3.99 8.938-8.92 8.938H9.298c-4.93 0-8.92-4.004-8.92-8.938V728.681c0-4.933 3.99-8.938 8.92-8.938Zm0 0" style="fill-rule:nonzero;fill:#fff;fill-opacity:1;stroke-width:.755906;stroke-linecap:butt;stroke-linejoin:miter;stroke:gray;stroke-opacity:1;stroke-miterlimit:4" transform="matrix(.42308 0 0 .42042 0 -302.435)"/><path d="m24.805 39.82 11.949-11.914-11.95-11.914-11.949 11.914ZM24.805 124.008l11.949-11.914-11.95-11.914-11.949 11.914ZM24.805 81.914 36.754 70l-11.95-11.914L12.856 70ZM74.195 39.82l11.95-11.914-11.95-11.914-11.949 11.914ZM74.195 124.008l11.95-11.914-11.95-11.914-11.949 11.914ZM74.195 81.914 86.145 70l-11.95-11.914L62.246 70ZM7.277 25.79l3.985-3.974-3.985-3.968-3.98 3.968ZM91.723 114.21l3.98 3.974-3.98 3.968-3.985-3.968ZM11.262 11.3c0 1.204-.344 2.153-1.032 2.852-.687.7-1.62 1.047-2.808 1.047-2.75 0-4.125-1.926-4.125-5.781 0-1.7.297-3.078.89-4.133.735-1.332 1.88-2 3.43-2 .895 0 1.64.188 2.235.563.71.441 1.066 1.093 1.066 1.949 0 .187-.133.281-.395.281H9.34c-.156 0-.285-.09-.395-.266-.152-.265-.277-.437-.367-.511-.219-.18-.539-.27-.96-.27-.712 0-1.266.336-1.661 1.008-.309.543-.484 1.207-.52 1.996.625-.504 1.372-.754 2.243-.754 1.105 0 1.988.395 2.644 1.188.625.746.938 1.691.938 2.832Zm-2.09-.046c0-.617-.152-1.129-.457-1.527-.336-.446-.8-.668-1.395-.668-.59 0-1.047.222-1.379.668-.3.398-.449.91-.449 1.527 0 .59.156 1.09.473 1.5.344.45.797.676 1.363.676.578 0 1.035-.223 1.379-.668.309-.407.465-.91.465-1.508ZM87.738 128.7c0-1.204.344-2.153 1.032-2.852.687-.7 1.62-1.047 2.808-1.047 2.75 0 4.125 1.926 4.125 5.781 0 1.7-.297 3.078-.89 4.133-.735 1.332-1.88 2-3.43 2-.895 0-1.64-.188-2.235-.563-.71-.441-1.066-1.093-1.066-1.949 0-.187.133-.281.395-.281h1.183c.156 0 .285.09.395.266.152.265.277.437.367.511.219.18.539.27.96.27.712 0 1.266-.336 1.661-1.008.309-.543.484-1.207.52-1.996-.626.504-1.372.754-2.243.754-1.105 0-1.988-.395-2.644-1.188-.625-.746-.938-1.691-.938-2.832Zm2.09.046c0 .617.152 1.129.457 1.527.336.446.8.668 1.395.668.59 0 1.047-.222 1.379-.668.3-.398.449-.91.449-1.527 0-.59-.156-1.09-.473-1.5a1.633 1.633 0 0 0-1.363-.676c-.578 0-1.035.223-1.379.668-.309.407-.465.91-.465 1.508Zm0 0" style="stroke:none;fill-rule:nonzero;fill:red;fill-opacity:1"/></svg>
